X: 190
T:The Missing Bar
M:4/4
L:1/8
C:Reel _
K:D
 FE~E2 FEDE | FE~E2 d2BA | FE~E2 FED2 | Beec dBAF:|!
efed Bdef | gfed Bee2 | efed B2AB | dAFA Beed |!
efed Bdef | gfef gbaf | gfed Bdce | dBAG ||
